.local/share/icons/Gruvbox-Plus-Dark/mimetypes/scalable/text-x-vcard.svg

<svg width="256" height="256" viewBox="0 0 256 256" fill="none" xmlns="http://www.w3.org/2000/svg">
<g opacity="0.4" filter="url(#filter0_f)">
<path d="M55.0839 15.5636H155.608L216.009 75.7129L216.011 224.609C216.011 233.52 208.749 240.737 199.838 240.737H55.0838C46.1734 240.737 39 233.564 39 224.654V31.6474C39 22.737 46.1734 15.5636 55.0838 15.5636H55.0839Z" fill="#282828"/>
</g>
<path d="M55.0839 15H155.608L216.009 75.1493L216.011 224.045C216.011 232.956 208.749 240.174 199.838 240.174H55.0838C46.1734 240.174 39 233 39 224.09V31.0838C39 22.1734 46.1734 15 55.0838 15H55.0839Z" fill="#ebdbb2"/>
<g opacity="0.4">
<path fill-rule="evenodd" clip-rule="evenodd" d="M39.068 88.9434C38.818 84.3824 39.13 57.6944 42.193 55.0074V55.0054L56.664 69.4104H63.998V60.6504H78.666L87.466 69.4104V75.2504H80.131L71.331 84.0094V89.8474L77.199 95.6874H83.065V84.0094H96.268L105.068 92.7694L96.266 102.986L100.666 107.366H91.865L83.065 116.126H77.198L68.398 124.884V142.402L53.73 127.803H44.93L39.063 121.963V106.589C39.063 104.326 39.049 102.168 39.0355 100.097C39.0096 96.1091 38.9858 92.44 39.068 88.9434ZM60.255 46.7574C61.461 46.2374 82.406 45.9494 83.131 46.0074L83.065 54.8124H68.398L60.255 46.7574ZM147.602 88.3884V84.0084L152.002 79.6284V88.3884H147.602ZM193.071 174.519V165.365L198.939 159.921V174.52H193.071V174.519ZM132.935 46.0524H99.955C99.6642 46.0524 99.417 46.0616 99.1699 46.0709C98.9371 46.0797 98.7043 46.0884 98.435 46.0894L93.333 51.8924L102.133 60.6504V69.8044L112.401 81.0894H118.268V75.2494L127.068 66.4894V60.6494L132.935 54.8114V46.0524ZM125.601 78.1694H130.001L134.401 82.5494H125.601V78.1694ZM85.999 126.344H81.599L77.199 130.724H85.999V126.344ZM165.203 119.045L182.805 119.045L182.805 124.884L197.472 139.483H203.339L188.671 154.081L188.87 170.85L170.476 189.157L159.336 177.439V159.921L156.403 157.002V152.622L152.003 148.243H141.735L134.402 140.943V126.344L144.669 116.125H162.269L165.203 119.045ZM81.4438 209.079C81.2701 209.063 81.0965 209.047 80.91 209.034L80.909 209.035L78.665 206.635V187.658L83.064 183.278L83.104 170.19L71.33 159.922V145.322L77.198 139.482H91.866L97.733 145.322H109.467L115.333 151.162V162.84L110.933 167.22V171.598L102.133 180.358V186.198L83.065 203.717L83.093 209.153C82.9384 209.145 82.7575 209.143 82.5764 209.141C82.3887 209.139 82.2009 209.138 82.042 209.128C81.8312 209.116 81.638 209.098 81.445 209.079L81.4438 209.079ZM102.133 100.067L106.533 95.6874L110.934 100.067L109.467 101.527H108L106.533 100.067H102.133Z" fill="url(#paint0_linear)"/>
<path d="M215.073 121.964V106.59C215.073 105.953 215.078 104.991 215.085 103.777C215.119 97.4559 215.191 84.2773 214.756 74.2564L203.5 63.5714H197.471L188.671 72.3314L182.805 66.4914H165.204L156.404 75.2514V82.5494H165.204V78.1694H171.071V84.0094L168.136 86.9284L156.403 87.1254L152.003 91.3084H146.136V97.1484L141.735 101.528V110.285H150.535L156.403 104.446H162.27V107.366L168.136 113.206H171.071V110.285L165.204 104.446H171.071L176.936 110.285H184.27L179.87 105.906L184.27 101.527H188.671L193.071 105.907H188.671L184.271 110.285L188.591 114.585L188.671 119.045H182.805L200.406 136.563H203.338L206.272 133.644L212.139 127.804L206.272 121.964H215.073Z" fill="url(#paint1_linear)"/>
</g>
<path fill-rule="evenodd" clip-rule="evenodd" d="M155.609 22.9787H55.0839C50.58 22.9787 46.9787 26.5799 46.9787 31.0838V224.09C46.9787 228.594 50.5799 232.195 55.0838 232.195H199.838C204.371 232.195 208.032 228.521 208.032 224.046V75.1493L155.609 22.9787ZM155.608 15H55.0839C46.1735 15 39 22.1734 39 31.0838V224.09C39 233 46.1734 240.174 55.0838 240.174H199.838C208.749 240.174 216.011 232.956 216.011 224.045L216.009 75.1493L155.608 15Z" fill="url(#paint2_linear)"/>
<path d="M128.834 188C135.133 188 141.099 187.669 146.901 186.84L151.044 170.265C143.917 172.088 136.79 173.083 129.497 173.083C102.315 173.083 85.2431 157.669 85.2431 130.155C85.2431 103.138 103.972 82.9171 131.155 82.9171C157.508 82.9171 171.265 98.4972 171.265 118.055C171.265 134.298 163.475 145.735 155.851 145.735C153.862 145.735 153.033 144.74 153.033 142.254C153.033 140.099 153.862 134.961 155.188 128L160.657 99.326H145.077L143.917 105.293C141.099 99.9889 135.961 97.1713 129 97.1713C110.602 97.1713 98.5028 114.74 98.5028 131.481C98.5028 148.552 108.282 159.823 122.37 159.823C129.829 159.823 136.127 157.006 140.271 150.21C141.762 156.508 147.895 159.492 153.033 159.492C171.431 159.492 186.348 141.923 186.348 117.724C186.348 90.3757 164.635 68 130.492 68C96.3481 68 69 93.6906 69 129.989C69 167.116 93.6961 188 128.834 188ZM124.691 144.575C118.392 144.575 114.414 139.436 114.414 131.646C114.414 121.204 120.713 112.42 129.829 112.42C136.293 112.42 139.939 117.392 139.939 125.017C139.939 134.133 134.138 144.575 124.691 144.575Z" fill="url(#paint3_linear)"/>
<path opacity="0.25" d="M155.608 17V61.2306C155.608 70.141 162.867 77.1605 171.777 77.1605L216.009 77.1493V75.1493L155.608 17Z" fill="#282828"/>
<path d="M155.608 15V59.2306C155.608 68.141 162.867 75.1605 171.777 75.1605L216.009 75.1493L155.608 15Z" fill="url(#paint4_linear)"/>
<defs>
<filter id="filter0_f" x="23.8778" y="0.441412" width="207.255" height="255.418" filterUnits="userSpaceOnUse" color-interpolation-filters="sRGB">
<feFlood flood-opacity="0" result="BackgroundImageFix"/>
<feBlend mode="normal" in="SourceGraphic" in2="BackgroundImageFix" result="shape"/>
<feGaussianBlur stdDeviation="7.5611" result="effect1_foregroundBlur"/>
</filter>
<linearGradient id="paint0_linear" x1="125.967" y1="45.9377" x2="126.345" y2="209.692" gradientUnits="userSpaceOnUse">
<stop stop-color="#83a598"/>
<stop offset="1" stop-color="#458588"/>
</linearGradient>
<linearGradient id="paint1_linear" x1="125.967" y1="45.9377" x2="126.345" y2="209.692" gradientUnits="userSpaceOnUse">
<stop stop-color="#83a598"/>
<stop offset="1" stop-color="#458588"/>
</linearGradient>
<linearGradient id="paint2_linear" x1="127.506" y1="15" x2="127.506" y2="240.174" gradientUnits="userSpaceOnUse">
<stop stop-color="#83a598"/>
<stop offset="1" stop-color="#458588"/>
</linearGradient>
<linearGradient id="paint3_linear" x1="126.948" y1="67.9541" x2="127.255" y2="188.396" gradientUnits="userSpaceOnUse">
<stop stop-color="#83a598"/>
<stop offset="1" stop-color="#458588"/>
</linearGradient>
<linearGradient id="paint4_linear" x1="185.435" y1="14.977" x2="185.585" y2="75.3591" gradientUnits="userSpaceOnUse">
<stop stop-color="#83a598"/>
<stop offset="1" stop-color="#458588"/>
</linearGradient>
</defs>
</svg>

<svg width="256" height="256" fill="none" version="1.1" viewBox="0 0 256 256" xmlns="http://www.w3.org/2000/svg">
  <path d="m55.08 15h100.5l60.4 60.15 2e-3 148.9c0 8.911-7.262 16.13-16.17 16.13h-144.8c-8.91 0-16.08-7.174-16.08-16.08v-193c0-8.91 7.173-16.08 16.08-16.08h1e-4z" fill="#ebdbb2"/>
  <g fill="url(#paint0_linear)" opacity=".4">
    <path d="m39.07 88.94c-0.25-4.561 0.062-31.25 3.125-33.94v-2e-3l14.47 14.4h7.334v-8.76h14.67l8.8 8.76v5.84h-7.335l-8.8 8.759v5.838l5.868 5.84h5.866v-11.68h13.2l8.8 8.76-8.802 10.22 4.4 4.38h-8.801l-8.8 8.76h-5.867l-8.8 8.758v17.52l-14.67-14.6h-8.8l-5.867-5.84v-15.37c0-2.263-0.014-4.421-0.0275-6.492-0.0259-3.988-0.0497-7.657 0.0325-11.15zm21.19-42.19c1.206-0.52 22.15-0.808 22.88-0.75l-0.066 8.805h-14.67l-8.143-8.055zm87.35 41.63v-4.38l4.4-4.38v8.76h-4.4zm45.47 86.13v-9.154l5.868-5.444v14.6h-5.868v-1e-3zm-60.14-128.5h-32.98c-0.2908 0-0.538 0.0092-0.7851 0.0185-0.2328 0.0088-0.4656 0.0175-0.7349 0.0185l-5.102 5.803 8.8 8.758v9.154l10.27 11.28h5.867v-5.84l8.8-8.76v-5.84l5.867-5.838v-8.759zm-7.334 32.12h4.4l4.4 4.38h-8.8v-4.38zm-39.6 48.17h-4.4l-4.4 4.38h8.8v-4.38zm79.2-7.299h17.6v5.839l14.67 14.6h5.867l-14.67 14.6 0.199 16.77-18.39 18.31-11.14-11.72v-17.52l-2.933-2.919v-4.38l-4.4-4.379h-10.27l-7.333-7.3v-14.6l10.27-10.22h17.6l2.934 2.92zm-83.76 90.03c-0.1737-0.016-0.3473-0.032-0.5338-0.045l-1e-3 1e-3 -2.244-2.4v-18.98l4.399-4.38 0.04-13.09-11.77-10.27v-14.6l5.868-5.84h14.67l5.867 5.84h11.73l5.866 5.84v11.68l-4.4 4.38v4.378l-8.8 8.76v5.84l-19.07 17.52 0.028 5.436c-0.1546-8e-3 -0.3355-0.01-0.5166-0.012-0.1877-2e-3 -0.3755-3e-3 -0.5344-0.013-0.2108-0.012-0.404-0.03-0.597-0.049h-0.0012zm20.69-109 4.4-4.38 4.401 4.38-1.467 1.46h-1.467l-1.467-1.46h-4.4z" clip-rule="evenodd" fill-rule="evenodd"/>
    <path d="m215.1 122v-15.37c0-0.637 5e-3 -1.599 0.012-2.813 0.034-6.321 0.106-19.5-0.329-29.52l-11.26-10.68h-6.029l-8.8 8.76-5.866-5.84h-17.6l-8.8 8.76v7.298h8.8v-4.38h5.867v5.84l-2.935 2.919-11.73 0.197-4.4 4.183h-5.867v5.84l-4.401 4.38v8.757h8.8l5.868-5.839h5.867v2.92l5.866 5.84h2.935v-2.921l-5.867-5.839h5.867l5.865 5.839h7.334l-4.4-4.379 4.4-4.379h4.401l4.4 4.38h-4.4l-4.4 4.378 4.32 4.3 0.08 4.46h-5.866l17.6 17.52h2.932l2.934-2.919 5.867-5.84-5.867-5.84h8.801z"/>
  </g>
  <path d="m155.6 22.98h-100.5c-4.504 0-8.105 3.601-8.105 8.105v193c0 4.504 3.601 8.105 8.105 8.105h144.8c4.533 0 8.194-3.674 8.194-8.149v-148.9l-52.42-52.17zm-1e-3 -7.979h-100.5c-8.91 0-16.08 7.173-16.08 16.08v193c0 8.91 7.173 16.08 16.08 16.08h144.8c8.911 0 16.17-7.218 16.17-16.13l-2e-3 -148.9-60.4-60.15z" clip-rule="evenodd" fill="url(#paint2_linear)" fill-rule="evenodd"/>
  <path d="m128.8 188c6.299 0 12.26-0.331 18.07-1.16l4.143-16.58c-7.127 1.823-14.25 2.818-21.55 2.818-27.18 0-44.25-15.41-44.25-42.93 0-27.02 18.73-47.24 45.91-47.24 26.35 0 40.11 15.58 40.11 35.14 0 16.24-7.79 27.68-15.41 27.68-1.989 0-2.818-0.995-2.818-3.481 0-2.155 0.829-7.293 2.155-14.25l5.469-28.67h-15.58l-1.16 5.967c-2.818-5.304-7.956-8.122-14.92-8.122-18.4 0-30.5 17.57-30.5 34.31 0 17.07 9.779 28.34 23.87 28.34 7.459 0 13.76-2.817 17.9-9.613 1.491 6.298 7.624 9.282 12.76 9.282 18.4 0 33.32-17.57 33.32-41.77 0-27.35-21.71-49.72-55.86-49.72-34.14 0-61.49 25.69-61.49 61.99 0 37.13 24.7 58.01 59.83 58.01zm-4.143-43.42c-6.299 0-10.28-5.139-10.28-12.93 0-10.44 6.299-19.23 15.42-19.23 6.464 0 10.11 4.972 10.11 12.6 0 9.116-5.801 19.56-15.25 19.56z" fill="url(#paint3_linear)"/>
  <path d="m155.6 17v44.23c0 8.91 7.259 15.93 16.17 15.93l44.23-0.0112v-2l-60.4-58.15z" fill="#282828" opacity=".25"/>
  <path d="m155.6 15v44.23c0 8.91 7.259 15.93 16.17 15.93l44.23-0.0112-60.4-60.15z" fill="url(#paint4_linear)"/>
  <defs>
    <linearGradient id="paint0_linear" x1="126" x2="126.3" y1="45.94" y2="209.7" gradientUnits="userSpaceOnUse">
      <stop stop-color="#83a598" offset="0"/>
      <stop stop-color="#458588" offset="1"/>
    </linearGradient>
    <linearGradient id="paint2_linear" x1="127.5" x2="127.5" y1="15" y2="240.2" gradientUnits="userSpaceOnUse">
      <stop stop-color="#83a598" offset="0"/>
      <stop stop-color="#458588" offset="1"/>
    </linearGradient>
    <linearGradient id="paint3_linear" x1="126.9" x2="127.3" y1="67.95" y2="188.4" gradientUnits="userSpaceOnUse">
      <stop stop-color="#83a598" offset="0"/>
      <stop stop-color="#458588" offset="1"/>
    </linearGradient>
    <linearGradient id="paint4_linear" x1="185.4" x2="185.6" y1="14.98" y2="75.36" gradientUnits="userSpaceOnUse">
      <stop stop-color="#83a598" offset="0"/>
      <stop stop-color="#458588" offset="1"/>
    </linearGradient>
  </defs>
</svg>
